img/search2.svg

<svg width="16" height="16" viewBox="0 0 16 16" fill="none" xmlns="http://www.w3.org/2000/svg">
<path fill-rule="evenodd" clip-rule="evenodd" d="M7.82592 2.3335C4.79725 2.3335 2.33325 4.79683 2.33325 7.8255C2.33325 10.8542 4.79725 13.3182 7.82592 13.3182C10.8539 13.3182 13.3179 10.8542 13.3179 7.8255C13.3179 4.79683 10.8539 2.3335 7.82592 2.3335ZM7.82592 14.3182C4.24592 14.3182 1.33325 11.4055 1.33325 7.8255C1.33325 4.2455 4.24592 1.3335 7.82592 1.3335C11.4059 1.3335 14.3179 4.2455 14.3179 7.8255C14.3179 11.4055 11.4059 14.3182 7.82592 14.3182Z" fill="#FC6733"/>
<path d="M7.82592 1.8335C4.52119 1.8335 1.83325 4.52061 1.83325 7.8255H2.83325C2.83325 5.07305 5.07332 2.8335 7.82592 2.8335V1.8335ZM1.83325 7.8255C1.83325 11.1303 4.52111 13.8182 7.82592 13.8182V12.8182C5.07339 12.8182 2.83325 10.578 2.83325 7.8255H1.83325ZM7.82592 13.8182C11.1301 13.8182 13.8179 11.1303 13.8179 7.8255H12.8179C12.8179 10.5781 10.5777 12.8182 7.82592 12.8182V13.8182ZM13.8179 7.8255C13.8179 4.52065 11.13 1.8335 7.82592 1.8335V2.8335C10.5778 2.8335 12.8179 5.07301 12.8179 7.8255H13.8179ZM7.82592 13.8182C4.52206 13.8182 1.83325 11.1294 1.83325 7.8255H0.833252C0.833252 11.6816 3.96978 14.8182 7.82592 14.8182V13.8182ZM1.83325 7.8255C1.83325 4.52171 4.52199 1.8335 7.82592 1.8335V0.833496C3.96984 0.833496 0.833252 3.96929 0.833252 7.8255H1.83325ZM7.82592 1.8335C11.1298 1.8335 13.8179 4.52164 13.8179 7.8255H14.8179C14.8179 3.96935 11.6821 0.833496 7.82592 0.833496V1.8335ZM13.8179 7.8255C13.8179 11.1294 11.1297 13.8182 7.82592 13.8182V14.8182C11.6821 14.8182 14.8179 11.6816 14.8179 7.8255H13.8179Z" fill="#FC6733"/>
<path fill-rule="evenodd" clip-rule="evenodd" d="M14.3429 15.1479C14.2156 15.1479 14.0876 15.0992 13.9896 15.0019L11.6402 12.6592C11.4449 12.4639 11.4442 12.1472 11.6396 11.9519C11.8342 11.7552 12.1509 11.7565 12.3469 11.9505L14.6962 14.2939C14.8916 14.4892 14.8922 14.8052 14.6969 15.0005C14.5996 15.0992 14.4709 15.1479 14.3429 15.1479Z" fill="#FC6733"/>
<path d="M14.3429 15.1479C14.2156 15.1479 14.0876 15.0992 13.9896 15.0019L11.6402 12.6592C11.4449 12.4639 11.4442 12.1472 11.6396 11.9519C11.8342 11.7552 12.1509 11.7565 12.3469 11.9505L14.6962 14.2939C14.8916 14.4892 14.8922 14.8052 14.6969 15.0005C14.5996 15.0992 14.4709 15.1479 14.3429 15.1479" stroke="#FC6733"/>
</svg>

<svg width="16" height="16" viewBox="0 0 16 16" fill="none" xmlns="http://www.w3.org/2000/svg"><path fill-rule="evenodd" clip-rule="evenodd" d="M7.826 2.333a5.498 5.498 0 0 0-5.493 5.492 5.499 5.499 0 0 0 5.493 5.493 5.499 5.499 0 0 0 5.492-5.492 5.498 5.498 0 0 0-5.492-5.492zm0 11.985a6.5 6.5 0 0 1-6.493-6.492 6.5 6.5 0 0 1 6.493-6.492 6.499 6.499 0 0 1 6.492 6.492 6.5 6.5 0 0 1-6.492 6.492z" fill="#FC6733"/><path d="M7.826 1.833a5.998 5.998 0 0 0-5.993 5.992h1a4.998 4.998 0 0 1 4.993-4.992v-1zM1.833 7.825a5.999 5.999 0 0 0 5.993 5.993v-1a4.999 4.999 0 0 1-4.993-4.992h-1zm5.993 5.993a5.999 5.999 0 0 0 5.992-5.992h-1a4.999 4.999 0 0 1-4.992 4.992v1zm5.992-5.992a5.998 5.998 0 0 0-5.992-5.992v1a4.998 4.998 0 0 1 4.992 4.992h1zm-5.992 5.992a6 6 0 0 1-5.993-5.992h-1a7 7 0 0 0 6.993 6.992v-1zM1.833 7.826a6 6 0 0 1 5.993-5.992v-1a7 7 0 0 0-6.993 6.99h1zm5.993-5.992a5.999 5.999 0 0 1 5.992 5.992h1A6.999 6.999 0 0 0 7.826.832v1zm5.992 5.992a6 6 0 0 1-5.992 5.992v1a7 7 0 0 0 6.992-6.992h-1z" fill="#FC6733"/><path fill-rule="evenodd" clip-rule="evenodd" d="M14.343 15.148a.5.5 0 0 1-.353-.146l-2.35-2.343a.5.5 0 0 1 .707-.709l2.35 2.344a.5.5 0 0 1-.354.854z" fill="#FC6733"/><path d="M14.343 15.148a.5.5 0 0 1-.353-.146l-2.35-2.343a.5.5 0 0 1 .707-.709l2.35 2.344a.5.5 0 0 1-.354.854" stroke="#FC6733"/></svg>
